assets/dude/Design–Dolly.svg

<svg width="509" height="112" viewBox="0 0 509 112" fill="none" xmlns="http://www.w3.org/2000/svg">
<path d="M55.6938 1.82H49.5338C40.7138 1.82 32.5938 5.6 26.8538 11.34C26.0138 12.18 25.5938 12.74 25.0338 12.74C24.4738 12.74 24.0538 12.18 23.2138 11.06C20.8338 7.98001 17.1938 6.02 12.9938 6.02C5.71377 6.02 0.11377 11.9 0.11377 19.18C0.11377 24.64 3.47377 27.3 3.47377 40.74C3.47377 41.44 4.03377 42 4.73377 42H18.5938C19.2938 42 19.8538 42.56 19.8538 43.26V68.46C19.8538 69.16 19.2938 69.72 18.5938 69.72H4.73377C4.03377 69.72 3.47377 70.28 3.47377 70.98C3.47377 84.42 0.11377 87.08 0.11377 92.54C0.11377 99.82 5.71377 105.7 12.9938 105.7C17.1938 105.7 20.8338 103.74 23.2138 100.66C24.0538 99.54 24.4738 98.98 25.0338 98.98C25.5938 98.98 26.0138 99.54 26.8538 100.38C32.5938 106.12 40.7138 109.9 49.5338 109.9H55.6938C73.1938 109.9 87.3338 96.32 87.3338 74.76V36.96C87.3338 15.4 73.1938 1.82 55.6938 1.82ZM31.1938 69.72C30.4938 69.72 29.9338 69.16 29.9338 68.46V43.26C29.9338 42.56 30.4938 42 31.1938 42H68.4338C73.3338 42 77.2538 45.92 77.2538 50.82V60.9C77.2538 65.8 73.3338 69.72 68.4338 69.72H31.1938Z" fill="#FF1C31"/>
<path d="M179.739 63.84C179.739 63.14 179.179 62.58 178.479 62.58H171.199C170.499 62.58 169.939 63.14 169.939 63.84C169.939 67.34 167.139 69.72 163.639 69.72H124.299C123.599 69.72 123.039 69.16 123.039 68.46V60.9C123.039 60.2 123.599 59.64 124.299 59.64H136.059C136.759 59.64 137.319 60.2 137.319 60.9V62.16C137.319 62.86 137.879 63.42 138.579 63.42H157.479C158.179 63.42 158.739 62.86 158.739 62.16V49.56C158.739 48.86 158.179 48.3 157.479 48.3H138.579C137.879 48.3 137.319 48.86 137.319 49.56V50.82C137.319 51.52 136.759 52.08 136.059 52.08H124.299C123.599 52.08 123.039 51.52 123.039 50.82V43.26C123.039 42.56 123.599 42 124.299 42H163.639C167.139 42 169.939 44.38 169.939 47.88C169.939 48.58 170.499 49.14 171.199 49.14H178.479C179.179 49.14 179.739 48.58 179.739 47.88V40.74C179.739 27.3 183.099 24.64 183.099 19.18C183.099 11.9 177.499 6.02 170.219 6.02C166.019 6.02 162.379 7.98001 159.999 11.06C159.019 12.32 158.739 13.86 158.319 13.86C157.899 13.86 157.339 12.32 156.639 11.06C154.679 7.56 149.079 0.140005 138.159 0.140005C127.239 0.140005 121.639 7.56 119.679 11.06C118.979 12.32 118.419 13.86 117.999 13.86C117.579 13.86 117.299 12.32 116.319 11.06C113.939 7.98001 110.299 6.02 106.099 6.02C98.8192 6.02 93.2192 11.9 93.2192 19.18C93.2192 24.64 96.5792 27.3 96.5792 40.74C96.5792 41.44 97.1392 42 97.8392 42H111.699C112.399 42 112.959 42.56 112.959 43.26V68.46C112.959 69.16 112.399 69.72 111.699 69.72H97.8392C97.1392 69.72 96.5792 70.28 96.5792 70.98C96.5792 84.42 93.2192 87.08 93.2192 92.54C93.2192 99.82 98.8192 105.7 106.099 105.7C110.299 105.7 113.939 103.74 116.319 100.66C117.299 99.4 117.579 97.86 117.999 97.86C118.419 97.86 118.979 99.4 119.679 100.66C121.639 104.16 127.239 111.58 138.159 111.58C149.079 111.58 154.679 104.16 156.639 100.66C157.339 99.4 157.899 97.86 158.319 97.86C158.739 97.86 159.019 99.4 159.999 100.66C162.379 103.74 166.019 105.7 170.219 105.7C177.499 105.7 183.099 99.82 183.099 92.54C183.099 87.08 179.739 84.42 179.739 70.98V63.84Z" fill="#FF1C31"/>
<path d="M258.916 69.16C258.916 41.16 211.876 60.48 211.876 45.78C211.876 43.68 213.556 42 215.656 42H240.716C244.216 42 247.016 44.38 247.016 47.88C247.016 48.58 247.576 49.14 248.276 49.14H255.556C256.256 49.14 256.816 48.58 256.816 47.88V43.4C256.816 29.96 260.176 27.3 260.176 21.84C260.176 14.56 254.576 8.68 247.296 8.68C245.196 8.68 243.236 9.24001 241.416 10.08C241.136 10.22 240.576 10.5 240.296 10.5C240.016 10.5 239.876 10.08 239.736 9.66C237.776 3.92 231.756 0 225.316 0C218.876 0 212.856 3.92 210.896 9.66C210.756 10.08 210.616 10.5 210.336 10.5C210.056 10.5 209.496 10.22 209.216 10.08C207.396 9.24001 205.436 8.68 203.336 8.68C196.056 8.68 190.456 14.56 190.456 21.84C190.456 27.3 192.976 27.86 192.976 41.3C192.976 72.38 240.016 51.8 240.016 65.94C240.016 68.04 238.336 69.72 236.236 69.72H208.656C205.156 69.72 202.356 67.34 202.356 63.84C202.356 63.14 201.796 62.58 201.096 62.58H193.816C193.116 62.58 192.556 63.14 192.556 63.84V66.64C192.556 80.08 189.196 82.74 189.196 88.2C189.196 95.48 194.796 101.36 202.076 101.36C204.176 101.36 206.136 100.8 207.956 99.96C208.236 99.82 208.796 99.54 209.076 99.54C209.356 99.54 209.496 99.96 209.636 100.38C211.596 106.26 216.776 112 225.736 112C234.696 112 239.876 106.26 241.836 100.38C241.976 99.96 242.116 99.54 242.396 99.54C242.676 99.54 243.236 99.82 243.516 99.96C245.336 100.8 247.296 101.36 249.396 101.36C256.676 101.36 262.276 95.48 262.276 88.2C262.276 82.74 258.916 82.6 258.916 69.16Z" fill="#FF1C31"/>
<path d="M312.065 69.72H298.205C297.505 69.72 296.945 69.16 296.945 68.46V43.26C296.945 42.56 297.505 42 298.205 42H312.065C312.765 42 313.326 41.44 313.326 40.74C313.326 27.3 316.685 24.64 316.685 19.18C316.685 11.9 311.085 6.02 303.805 6.02C299.605 6.02 295.965 7.98001 293.585 11.06C292.605 12.32 292.325 13.86 291.905 13.86C291.485 13.86 291.205 12.32 290.225 11.06C287.845 7.98001 284.205 6.02 280.005 6.02C272.725 6.02 267.125 11.9 267.125 19.18C267.125 24.64 270.485 27.3 270.485 40.74C270.485 41.44 271.045 42 271.745 42H285.605C286.305 42 286.865 42.56 286.865 43.26V68.46C286.865 69.16 286.305 69.72 285.605 69.72H271.745C271.045 69.72 270.485 70.28 270.485 70.98C270.485 84.42 267.125 87.08 267.125 92.54C267.125 99.82 272.725 105.7 280.005 105.7C284.205 105.7 287.845 103.74 290.225 100.66C291.205 99.4 291.485 97.86 291.905 97.86C292.325 97.86 292.605 99.4 293.585 100.66C295.965 103.74 299.605 105.7 303.805 105.7C311.085 105.7 316.685 99.82 316.685 92.54C316.685 87.08 313.326 84.42 313.326 70.98C313.326 70.28 312.765 69.72 312.065 69.72Z" fill="#FF1C31"/>
<path d="M396.833 54.74C396.833 54.04 396.273 53.48 395.573 53.48H371.913C371.213 53.48 370.653 54.04 370.653 54.74V59.78C370.653 60.48 371.213 61.04 371.913 61.04H385.773C386.473 61.04 387.033 61.6 387.033 62.3V64.12C387.033 67.62 384.233 70 380.733 70H346.433C340.273 70 335.233 64.96 335.233 58.8V52.92C335.233 46.76 340.273 41.72 346.433 41.72H380.733C384.233 41.72 387.033 44.1 387.033 47.6C387.033 48.3 387.593 48.86 388.293 48.86H395.573C396.273 48.86 396.833 48.3 396.833 47.6V43.12C396.833 29.68 400.193 27.02 400.193 21.56C400.193 14.28 394.593 8.4 387.313 8.4C384.933 8.4 382.413 9.1 380.733 10.22C380.313 10.5 379.753 10.92 379.473 10.92C379.053 10.92 378.913 10.36 378.633 9.80001C375.553 3.78 368.693 0 361.413 0C354.133 0 347.273 3.78 344.193 9.80001C343.913 10.36 343.773 10.92 343.353 10.92C343.073 10.92 342.513 10.5 342.093 10.22C340.413 9.1 337.893 8.4 335.513 8.4C328.233 8.4 322.633 14.28 322.633 21.56C322.633 27.02 325.993 29.68 325.993 43.12V68.88C325.993 82.32 322.633 84.98 322.633 90.44C322.633 97.72 328.233 103.6 335.513 103.6C337.893 103.6 340.413 102.9 342.093 101.78C342.513 101.5 343.073 101.08 343.353 101.08C343.773 101.08 343.913 101.64 344.193 102.2C347.273 108.36 354.133 112 361.413 112C368.693 112 375.553 108.36 378.633 102.2C378.913 101.64 379.053 101.08 379.473 101.08C379.753 101.08 380.313 101.5 380.733 101.78C382.413 102.9 384.933 103.6 387.313 103.6C394.593 103.6 400.193 97.72 400.193 90.44C400.193 84.98 396.833 82.32 396.833 68.88V54.74Z" fill="#FF1C31"/>
<path d="M495.632 6.02C491.432 6.02 487.792 7.98001 485.412 11.06C484.432 12.32 484.152 13.86 483.732 13.86C483.312 13.86 483.032 12.32 482.052 11.06C479.672 7.98001 476.032 6.02 471.832 6.02C464.552 6.02 458.952 11.9 458.952 19.18C458.952 24.64 462.312 27.3 462.312 40.74C462.312 41.44 462.872 42 463.572 42H477.432C478.132 42 478.692 42.56 478.692 43.26V68.46C478.692 69.16 478.132 69.72 477.432 69.72H469.592C468.472 69.72 467.912 69.16 467.912 69.16L449.992 43.96C449.992 43.96 449.432 43.12 449.432 42.56C449.432 42.28 449.572 42 450.272 42H450.972C451.672 42 452.232 41.44 452.232 40.74C452.232 27.3 455.592 24.64 455.592 19.18C455.592 11.9 449.992 6.02 442.712 6.02C438.512 6.02 434.872 7.98001 432.492 11.06C431.512 12.32 431.232 13.86 430.812 13.86C430.392 13.86 430.112 12.32 429.132 11.06C426.752 7.98001 423.112 6.02 418.912 6.02C411.632 6.02 406.032 11.9 406.032 19.18C406.032 24.64 409.392 27.3 409.392 40.74C409.392 41.44 409.952 42 410.652 42H424.512C425.212 42 425.772 42.56 425.772 43.26V68.46C425.772 69.16 425.212 69.72 424.512 69.72H410.652C409.952 69.72 409.392 70.28 409.392 70.98C409.392 84.42 406.032 87.08 406.032 92.54C406.032 99.82 411.632 105.7 418.912 105.7C423.112 105.7 426.752 103.74 429.132 100.66C430.112 99.4 430.392 97.86 430.812 97.86C431.232 97.86 431.512 99.4 432.492 100.66C434.872 103.74 438.512 105.7 442.712 105.7C449.992 105.7 455.592 99.82 455.592 92.54C455.592 87.08 452.232 84.42 452.232 70.98C452.232 70.28 451.672 69.72 450.972 69.72H437.112C436.412 69.72 435.852 69.16 435.852 68.46V44.1C435.852 43.54 436.132 43.26 436.412 43.26C437.112 43.26 437.812 44.38 437.812 44.38L479.672 102.9C480.512 104.16 482.052 105 483.732 105C486.532 105 488.772 102.76 488.772 99.96V43.26C488.772 42.56 489.332 42 490.032 42H503.892C504.592 42 505.152 41.44 505.152 40.74C505.152 27.3 508.512 24.64 508.512 19.18C508.512 11.9 502.912 6.02 495.632 6.02Z" fill="#FF1C31"/>
</svg>

<svg xmlns="http://www.w3.org/2000/svg" fill="none" viewBox="0 0 509 112"><path fill="#FF1C31" d="M55.694 1.82h-6.16c-8.82 0-16.94 3.78-22.68 9.52-.84.84-1.26 1.4-1.82 1.4s-.98-.56-1.82-1.68c-2.38-3.08-6.02-5.04-10.22-5.04-7.28 0-12.88 5.88-12.88 13.16 0 5.46 3.36 8.12 3.36 21.56 0 .7.56 1.26 1.26 1.26h13.86c.7 0 1.26.56 1.26 1.26v25.2c0 .7-.56 1.26-1.26 1.26H4.734c-.7 0-1.26.56-1.26 1.26 0 13.44-3.36 16.1-3.36 21.56 0 7.28 5.6 13.16 12.88 13.16 4.2 0 7.84-1.96 10.22-5.04.84-1.12 1.26-1.68 1.82-1.68s.98.56 1.82 1.4c5.74 5.74 13.86 9.52 22.68 9.52h6.16c17.5 0 31.64-13.58 31.64-35.14v-37.8c0-21.56-14.14-35.14-31.64-35.14zm-24.5 67.9c-.7 0-1.26-.56-1.26-1.26v-25.2c0-.7.56-1.26 1.26-1.26h37.24c4.9 0 8.82 3.92 8.82 8.82V60.9c0 4.9-3.92 8.82-8.82 8.82h-37.24zM179.739 63.84c0-.7-.56-1.26-1.26-1.26h-7.28c-.7 0-1.26.56-1.26 1.26 0 3.5-2.8 5.88-6.3 5.88h-39.34c-.7 0-1.26-.56-1.26-1.26V60.9c0-.7.56-1.26 1.26-1.26h11.76c.7 0 1.26.56 1.26 1.26v1.26c0 .7.56 1.26 1.26 1.26h18.9c.7 0 1.26-.56 1.26-1.26v-12.6c0-.7-.56-1.26-1.26-1.26h-18.9c-.7 0-1.26.56-1.26 1.26v1.26c0 .7-.56 1.26-1.26 1.26h-11.76c-.7 0-1.26-.56-1.26-1.26v-7.56c0-.7.56-1.26 1.26-1.26h39.34c3.5 0 6.3 2.38 6.3 5.88 0 .7.56 1.26 1.26 1.26h7.28c.7 0 1.26-.56 1.26-1.26v-7.14c0-13.44 3.36-16.1 3.36-21.56 0-7.28-5.6-13.16-12.88-13.16-4.2 0-7.84 1.96-10.22 5.04-.98 1.26-1.26 2.8-1.68 2.8-.42 0-.98-1.54-1.68-2.8-1.96-3.5-7.56-10.92-18.48-10.92-10.92 0-16.52 7.42-18.48 10.92-.7 1.26-1.26 2.8-1.68 2.8-.42 0-.7-1.54-1.68-2.8-2.38-3.08-6.02-5.04-10.22-5.04-7.28 0-12.88 5.88-12.88 13.16 0 5.46 3.36 8.12 3.36 21.56 0 .7.56 1.26 1.26 1.26h13.86c.7 0 1.26.56 1.26 1.26v25.2c0 .7-.56 1.26-1.26 1.26h-13.86c-.7 0-1.26.56-1.26 1.26 0 13.44-3.36 16.1-3.36 21.56 0 7.28 5.6 13.16 12.88 13.16 4.2 0 7.84-1.96 10.22-5.04.98-1.26 1.26-2.8 1.68-2.8.42 0 .98 1.54 1.68 2.8 1.96 3.5 7.56 10.92 18.48 10.92 10.92 0 16.52-7.42 18.48-10.92.7-1.26 1.26-2.8 1.68-2.8.42 0 .7 1.54 1.68 2.8 2.38 3.08 6.02 5.04 10.22 5.04 7.28 0 12.88-5.88 12.88-13.16 0-5.46-3.36-8.12-3.36-21.56v-7.14zM258.916 69.16c0-28-47.04-8.68-47.04-23.38 0-2.1 1.68-3.78 3.78-3.78h25.06c3.5 0 6.3 2.38 6.3 5.88 0 .7.56 1.26 1.26 1.26h7.28c.7 0 1.26-.56 1.26-1.26V43.4c0-13.44 3.36-16.1 3.36-21.56 0-7.28-5.6-13.16-12.88-13.16-2.1 0-4.06.56-5.88 1.4-.28.14-.84.42-1.12.42-.28 0-.42-.42-.56-.84-1.96-5.74-7.98-9.66-14.42-9.66-6.44 0-12.46 3.92-14.42 9.66-.14.42-.28.84-.56.84s-.84-.28-1.12-.42c-1.82-.84-3.78-1.4-5.88-1.4-7.28 0-12.88 5.88-12.88 13.16 0 5.46 2.52 6.02 2.52 19.46 0 31.08 47.04 10.5 47.04 24.64 0 2.1-1.68 3.78-3.78 3.78h-27.58c-3.5 0-6.3-2.38-6.3-5.88 0-.7-.56-1.26-1.26-1.26h-7.28c-.7 0-1.26.56-1.26 1.26v2.8c0 13.44-3.36 16.1-3.36 21.56 0 7.28 5.6 13.16 12.88 13.16 2.1 0 4.06-.56 5.88-1.4.28-.14.84-.42 1.12-.42.28 0 .42.42.56.84 1.96 5.88 7.14 11.62 16.1 11.62s14.14-5.74 16.1-11.62c.14-.42.28-.84.56-.84s.84.28 1.12.42c1.82.84 3.78 1.4 5.88 1.4 7.28 0 12.88-5.88 12.88-13.16 0-5.46-3.36-5.6-3.36-19.04zM312.065 69.72h-13.86c-.7 0-1.26-.56-1.26-1.26v-25.2c0-.7.56-1.26 1.26-1.26h13.86c.7 0 1.261-.56 1.261-1.26 0-13.44 3.359-16.1 3.359-21.56 0-7.28-5.6-13.16-12.88-13.16-4.2 0-7.84 1.96-10.22 5.04-.98 1.26-1.26 2.8-1.68 2.8-.42 0-.7-1.54-1.68-2.8-2.38-3.08-6.02-5.04-10.22-5.04-7.28 0-12.88 5.88-12.88 13.16 0 5.46 3.36 8.12 3.36 21.56 0 .7.56 1.26 1.26 1.26h13.86c.7 0 1.26.56 1.26 1.26v25.2c0 .7-.56 1.26-1.26 1.26h-13.86c-.7 0-1.26.56-1.26 1.26 0 13.44-3.36 16.1-3.36 21.56 0 7.28 5.6 13.16 12.88 13.16 4.2 0 7.84-1.96 10.22-5.04.98-1.26 1.26-2.8 1.68-2.8.42 0 .7 1.54 1.68 2.8 2.38 3.08 6.02 5.04 10.22 5.04 7.28 0 12.88-5.88 12.88-13.16 0-5.46-3.359-8.12-3.359-21.56 0-.7-.561-1.26-1.261-1.26zM396.833 54.74c0-.7-.56-1.26-1.26-1.26h-23.66c-.7 0-1.26.56-1.26 1.26v5.04c0 .7.56 1.26 1.26 1.26h13.86c.7 0 1.26.56 1.26 1.26v1.82c0 3.5-2.8 5.88-6.3 5.88h-34.3c-6.16 0-11.2-5.04-11.2-11.2v-5.88c0-6.16 5.04-11.2 11.2-11.2h34.3c3.5 0 6.3 2.38 6.3 5.88 0 .7.56 1.26 1.26 1.26h7.28c.7 0 1.26-.56 1.26-1.26v-4.48c0-13.44 3.36-16.1 3.36-21.56 0-7.28-5.6-13.16-12.88-13.16-2.38 0-4.9.7-6.58 1.82-.42.28-.98.7-1.26.7-.42 0-.56-.56-.84-1.12-3.08-6.02-9.94-9.8-17.22-9.8-7.28 0-14.14 3.78-17.22 9.8-.28.56-.42 1.12-.84 1.12-.28 0-.84-.42-1.26-.7-1.68-1.12-4.2-1.82-6.58-1.82-7.28 0-12.88 5.88-12.88 13.16 0 5.46 3.36 8.12 3.36 21.56v25.76c0 13.44-3.36 16.1-3.36 21.56 0 7.28 5.6 13.16 12.88 13.16 2.38 0 4.9-.7 6.58-1.82.42-.28.98-.7 1.26-.7.42 0 .56.56.84 1.12 3.08 6.16 9.94 9.8 17.22 9.8 7.28 0 14.14-3.64 17.22-9.8.28-.56.42-1.12.84-1.12.28 0 .84.42 1.26.7 1.68 1.12 4.2 1.82 6.58 1.82 7.28 0 12.88-5.88 12.88-13.16 0-5.46-3.36-8.12-3.36-21.56V54.74zM495.632 6.02c-4.2 0-7.84 1.96-10.22 5.04-.98 1.26-1.26 2.8-1.68 2.8-.42 0-.7-1.54-1.68-2.8-2.38-3.08-6.02-5.04-10.22-5.04-7.28 0-12.88 5.88-12.88 13.16 0 5.46 3.36 8.12 3.36 21.56 0 .7.56 1.26 1.26 1.26h13.86c.7 0 1.26.56 1.26 1.26v25.2c0 .7-.56 1.26-1.26 1.26h-7.84c-1.12 0-1.68-.56-1.68-.56l-17.92-25.2s-.56-.84-.56-1.4c0-.28.14-.56.84-.56h.7c.7 0 1.26-.56 1.26-1.26 0-13.44 3.36-16.1 3.36-21.56 0-7.28-5.6-13.16-12.88-13.16-4.2 0-7.84 1.96-10.22 5.04-.98 1.26-1.26 2.8-1.68 2.8-.42 0-.7-1.54-1.68-2.8-2.38-3.08-6.02-5.04-10.22-5.04-7.28 0-12.88 5.88-12.88 13.16 0 5.46 3.36 8.12 3.36 21.56 0 .7.56 1.26 1.26 1.26h13.86c.7 0 1.26.56 1.26 1.26v25.2c0 .7-.56 1.26-1.26 1.26h-13.86c-.7 0-1.26.56-1.26 1.26 0 13.44-3.36 16.1-3.36 21.56 0 7.28 5.6 13.16 12.88 13.16 4.2 0 7.84-1.96 10.22-5.04.98-1.26 1.26-2.8 1.68-2.8.42 0 .7 1.54 1.68 2.8 2.38 3.08 6.02 5.04 10.22 5.04 7.28 0 12.88-5.88 12.88-13.16 0-5.46-3.36-8.12-3.36-21.56 0-.7-.56-1.26-1.26-1.26h-13.86c-.7 0-1.26-.56-1.26-1.26V44.1c0-.56.28-.84.56-.84.7 0 1.4 1.12 1.4 1.12l41.86 58.52c.84 1.26 2.38 2.1 4.06 2.1 2.8 0 5.04-2.24 5.04-5.04v-56.7c0-.7.56-1.26 1.26-1.26h13.86c.7 0 1.26-.56 1.26-1.26 0-13.44 3.36-16.1 3.36-21.56 0-7.28-5.6-13.16-12.88-13.16z"/></svg>
